!!!SOCIAL_FUNCTION:	songs connected with legends
!!!PDT:	1929
!!!OTL: No_5_Song_of_Earth_Magician_when_Disappearing_in_the_Ground.krn
!!!REG: Southwest
!!!LANG: Non-Tone
!!!LING_GROUP: Uto-Aztecan
**kern
*staff1
=1-
=
*clefF4
*k[f#]
*M2/4
8.G\L
16d\Jk
4d\
=2||
*M3/4
8.d\L
16d\Jk
2d\
=3||
*M2/4
4d\
8c\L
8A\J
=4||
*M3/4
8.c\L
16A\Jk
4A\
8E\L
16A\Jk
16r
=5||
*M2/4
4c\
8A\L
8G\J
=6
4G\
8D\L
16D\Jk
16r
=7
4G\
8A\L
8G\J
=8||
*M3/4
8.A\L
16G\Jk
2G\
=9||
*M2/4
4G\
8E\L
8D\J
=10
4G\
4G\
=11:|!|:
2r
=12
4d\
8c\L
8A\J
=13||
*M3/4
8.c\L
16A\Jk
4A\
8E\L
8A\J
=14||
*M2/4
4c\
8A\L
8G\J
=15
4G\
8D\L
16D\Jk
16r
=16
4G\
8A\L
8G\J
=17||
*M3/4
8.A\L
16G\Jk
2G\
=18||
*M2/4
4G\
8E\L
8D\J
=19
4G\
4G\
==:|!
*-
